icons/3_Generic/Server.svg

<svg width="1024" height="1024" viewBox="0 0 1024 1024" fill="none" xmlns="http://www.w3.org/2000/svg">
<g clip-path="url(#clip0_3_440)">
<path d="M512 1024C794.77 1024 1024 794.77 1024 512C1024 229.23 794.77 0 512 0C229.23 0 0 229.23 0 512C0 794.77 229.23 1024 512 1024Z" fill="#8C72BD"/>
<path d="M716.26 537.53H307.75C287.94 537.53 272.01 553.67 272.01 573.27V695.82C271.998 700.516 272.914 705.169 274.706 709.511C276.498 713.852 279.13 717.797 282.451 721.118C285.773 724.439 289.717 727.071 294.059 728.863C298.4 730.655 303.053 731.572 307.75 731.56H716.26C735.87 731.56 752 715.63 752 695.82V573.27C752 553.66 735.86 537.53 716.26 537.53ZM721.37 695.83C721.37 698.69 718.92 700.94 716.26 700.94H307.75C304.89 700.94 302.64 698.69 302.64 695.83V573.28C302.64 570.42 304.89 568.17 307.75 568.17H716.26C718.92 568.17 721.37 570.42 721.37 573.28V695.83ZM716.26 292.43H307.75C287.94 292.43 272.01 308.57 272.01 328.17V450.72C271.998 455.416 272.914 460.069 274.706 464.411C276.498 468.752 279.13 472.697 282.451 476.018C285.773 479.339 289.717 481.971 294.059 483.763C298.4 485.555 303.053 486.472 307.75 486.46H716.26C735.87 486.46 752 470.53 752 450.72V328.17C752 308.56 735.86 292.43 716.26 292.43ZM721.37 450.73C721.37 453.59 718.92 455.84 716.26 455.84H307.75C304.89 455.84 302.64 453.59 302.64 450.73V328.18C302.64 325.32 304.89 323.07 307.75 323.07H716.26C718.92 323.07 721.37 325.32 721.37 328.18V450.73ZM670.31 389.45C670.31 403.54 658.87 414.98 644.78 414.98C630.69 414.98 619.25 403.54 619.25 389.45C619.25 375.36 630.69 363.92 644.78 363.92C658.87 363.92 670.31 375.36 670.31 389.45ZM670.31 634.56C670.31 648.65 658.87 660.09 644.78 660.09C630.69 660.09 619.25 648.65 619.25 634.56C619.25 620.47 630.69 609.03 644.78 609.03C658.87 609.03 670.31 620.47 670.31 634.56ZM517.12 634.56C517.12 643.14 512.45 649.88 506.85 649.88H363.83C358.23 649.88 353.71 643.14 353.71 634.56C353.71 625.98 358.22 619.24 363.83 619.24H506.85C512.45 619.24 517.12 626.18 517.12 634.56ZM517.12 389.45C517.12 398.03 512.45 404.77 506.85 404.77H363.83C358.23 404.77 353.71 398.03 353.71 389.45C353.71 380.87 358.22 374.13 363.83 374.13H506.85C512.45 374.13 517.12 381.07 517.12 389.45Z" fill="white"/>
</g>
<defs>
<clipPath id="clip0_3_440">
<rect width="1024" height="1024" fill="white"/>
</clipPath>
</defs>
</svg>

<svg xmlns="http://www.w3.org/2000/svg" width="1024" height="1024" fill="none">
   <g clip-path="url(#a)">
      <path fill="#8C72BD" d="M512 1024c282.77 0 512-229.23 512-512S794.77 0 512 0 0 229.23 0 512s229.23 512 512 512Z"/>
      <path fill="#fff" d="M716.26 537.53H307.75c-19.81 0-35.74 16.14-35.74 35.74v122.55a35.65 35.65 0 0 0 35.74 35.74h408.51c19.61 0 35.74-15.93 35.74-35.74V573.27c0-19.61-16.14-35.74-35.74-35.74Zm5.11 158.3c0 2.86-2.45 5.11-5.11 5.11H307.75c-2.86 0-5.11-2.25-5.11-5.11V573.28c0-2.86 2.25-5.11 5.11-5.11h408.51c2.66 0 5.11 2.25 5.11 5.11v122.55Zm-5.11-403.4H307.75c-19.81 0-35.74 16.14-35.74 35.74v122.55a35.65 35.65 0 0 0 35.74 35.74h408.51c19.61 0 35.74-15.93 35.74-35.74V328.17c0-19.61-16.14-35.74-35.74-35.74Zm5.11 158.3c0 2.86-2.45 5.11-5.11 5.11H307.75c-2.86 0-5.11-2.25-5.11-5.11V328.18c0-2.86 2.25-5.11 5.11-5.11h408.51c2.66 0 5.11 2.25 5.11 5.11v122.55Zm-51.06-61.28c0 14.09-11.44 25.53-25.53 25.53-14.09 0-25.53-11.44-25.53-25.53 0-14.09 11.44-25.53 25.53-25.53 14.09 0 25.53 11.44 25.53 25.53Zm0 245.11c0 14.09-11.44 25.53-25.53 25.53-14.09 0-25.53-11.44-25.53-25.53 0-14.09 11.44-25.53 25.53-25.53 14.09 0 25.53 11.44 25.53 25.53Zm-153.19 0c0 8.58-4.67 15.32-10.27 15.32H363.83c-5.6 0-10.12-6.74-10.12-15.32s4.51-15.32 10.12-15.32h143.02c5.6 0 10.27 6.94 10.27 15.32Zm0-245.11c0 8.58-4.67 15.32-10.27 15.32H363.83c-5.6 0-10.12-6.74-10.12-15.32s4.51-15.32 10.12-15.32h143.02c5.6 0 10.27 6.94 10.27 15.32Z"/>
   </g>
   <defs>
      <clipPath id="a">
         <path fill="#fff" d="M0 0h1024v1024H0z"/>
      </clipPath>
   </defs>
</svg>
